src/actions/16/view-financial-transfer-reconcile.svg

<svg viewBox="0 0 16 16" xmlns="http://www.w3.org/2000/svg">
  <defs id="defs3051">
    <style type="text/css" id="current-color-scheme">
      .ColorScheme-Text {
        color:#363636;
      }
      .ColorScheme-NegativeText {
        color:#d19494;
      }
      </style>
  </defs>
<path d="m5 2v4h1v-3h8v7h-5v1h5v2h-5v1h6v-12zm2 2v1h4v-1zm5 0v1h1v-1zm-11 3v7h7v-7zm1 1h5v5h-5zm7 0v1h2v-1zm3 0v1h1v-1zm-9 3v1h1v-1zm2 0v1h1v-1z"
      style="fill:currentColor;fill-opacity:1;stroke:none"
      class="ColorScheme-Text"
      />
<path d="m9 6v1h2v-1h-2zm3 0v1h1v-1h-1zm-9 3v1h1v-1h-1zm2 0v1h1v-1h-1z"
      style="fill:currentColor;fill-opacity:1;stroke:none"
      class="ColorScheme-NegativeText"
      />
</svg>

<svg xmlns="http://www.w3.org/2000/svg" viewBox="0 0 16 16">
    <path d="M5 2v4h1V3h8v7H9v1h5v2H9v1h6V2zm2 2v1h4V4zm5 0v1h1V4zM1 7v7h7V7zm1 1h5v5H2zm7 0v1h2V8zm3 0v1h1V8zm-9 3v1h1v-1zm2 0v1h1v-1z" style="fill:currentColor;fill-opacity:1;stroke:none;color:#050505;opacity:.7"/>
    <path d="M9 6v1h2V6H9zm3 0v1h1V6h-1zM3 9v1h1V9H3zm2 0v1h1V9H5z" style="fill:currentColor;fill-opacity:1;stroke:none;color:#d98c8c"/>
</svg>
